X: 38307
T: Stack Of Bacon, The
R: hornpipe
M: 4/4
K: Gmixolydian
GA|Bd BG AB AF|GA GF D2 DE|FE FG AG AB|cB cd c2 A2|Bd BG AB AF|
GA GF D2 DE|FE FG AF Ac|1 (3Bcd (3cBA G4:|2 (3Bcd e^c d2 dA||
de fg a2 af|af bf a2 f2|de fg a2 af|(3agf (3gfe d2 dA|
[1 de fg a2 af|af bf a2 f2|de fg a2 ae|(3fga (3gfe d2 dA:|
[2 de d^c A2 AF|GA GF D2 DE|FE FG AF Ac|(3Bcd (3cBA G4||

